outputs/icons/action/check_mark_round.svg

<svg width="1200" height="1200" viewBox="0 0 1200 1200" fill="none" xmlns="http://www.w3.org/2000/svg"><g clip-path="url(#clip0_217_685)"><path d="M450.006 809.99L275.006 634.99C255.506 615.49 224.506 615.49 205.006 634.99C185.506 654.49 185.506 685.49 205.006 704.99L414.506 914.49C434.006 933.99 465.506 933.99 485.006 914.49L1015.005 384.991C1034.505 365.491 1034.505 334.491 1015.005 314.991C995.505 295.491 964.505 295.491 945.005 314.991L450.006 809.99Z" fill="black"/></g><defs><clipPath id="clip0_217_685"><path width="24" fill="white" d="M0 0H1200V1200H0V0z"/></clipPath></defs></svg>

<svg xmlns="http://www.w3.org/2000/svg" width="1200" height="1200" fill="none"><g clip-path="url(#a)"><path fill="#000" d="m450.006 809.99-175-175c-19.5-19.5-50.5-19.5-70 0s-19.5 50.5 0 70l209.5 209.5c19.5 19.5 51 19.5 70.5 0l529.999-529.499c19.5-19.5 19.5-50.5 0-70s-50.5-19.5-70 0z"/></g><defs><clipPath id="a"><path fill="#fff" d="M0 0h1200v1200H0z"/></clipPath></defs></svg>
